X:37
T:Mackerel for Tea
R:Jig
% 32-bar Jigs
C:Pete Mac 1985
O:England
S:https://pghardy.net/tunebooks/#petemac
F:https://pghardy.net/tunebooks/pgh_pete_mac_tunebook.abc
F:https://pghardy.net/tunebooks/pgh_pete_mac_tunebook.pdf
Z:Pete Mac Tunebook 2023 (see https://pghardy.net/tunebooks/).
Z:Creative Commons CC0 (Public Domain) licenced.
M:6/8
L:1/8
Q:3/8=105
K:D
FG|"D"A2 A Afe|d2A A2 A|"G"B2 B BdB|"D"A3-A2 A|"G"B2 B BdB|"D"A2 F F2 A|ABA AFD|"A7"E3-E2 F|
"D"DFA dcB|AFF F2F|DFA d2d|"A"c3-c2 c|"A7"C3 E3|A3 c3|ABA GFE|"D"D3-D2 A||
"D"DFA BAF|ABA A3|DFA BAF|"A"ABA E3|"A7"cBA cBA|efe cBA|ABA FG^G|"D"A3-A2 A|
"D"D2 D FED|FAB A3|"A"C2 C EDC|CEE E3|"A7"ccc c2 c|ccc c2 c|ABA GFE|"D"D3-D|]

% This tunebook contains tunes written or extended by Pete Mac, who wishes 
% them to be freely used. Pete says: "I play piano accordion, melodeon and 
% English Concertina. I ran a folk dance and barn dance band for 40 years, in 
% Cambridgeshire and then in Devon where I now live. % I wrote these tunes for 
% use in the bands, and am pleased if others play them. I still lead bands and 
% workshops occasionally, mostly in the Camping and Caravanning Club 'Folk 
% Group' which has been a lifetime involvement, and of which I am a founder 
% member."  
% The tunes (written between 1988 and 2006) are released under a Creative 
% Commons Zero licence - CC0 1.0. To view a copy of this license, visit 
% http://creativecommons.org/publicdomain/zero/1.0. 
% Through this licence, the author has dedicated the work to the public domain 
% by waiving all of his rights worldwide under copyright law, including all 
% related and neighboring rights, to the extent allowed by law.  
% You can copy, modify, distribute and perform these tunes, even for 
% commercial purposes, all without asking permission. 
% Editing, layout and publishing of this Tunebook and its ABC music is by Paul 
% Hardy (paul@paulhardy.net), who releases his assistance work under the same 
% CC0 1.0 licence. See https://pghardy.net/tunebooks/ for downloads of this 
% and more of Paul's tunebooks.
% Original tunebook of 19 October 2023. This version of 8 November 2023.